Newaita/actions/24/edit-clone-unlink.svg

<svg height="24" viewBox="0 0 24 24" width="24" xmlns="http://www.w3.org/2000/svg"><g fill="#424242"><path d="m8.929688 4.15625c-1.097657 0-1.984376.886719-1.984376 1.984375v13.890625c0 1.101562.886719 1.988281 1.984376 1.988281h4.960937v-1.988281h-3.96875c-.546875 0-.980469-.441406-.992187-.992188v-11.90625c0-.550781.445312-.992187.992187-.992187h3.96875v-.003906h1.582031l3.390625 3.390625v1.574218c-.003906 0-.003906 0-.003906 0v1.984376h1.984375v-.992188c0-.042969-.003906-.089844-.003906-.136719v-2.839843c0-.261719-.105469-.511719-.292969-.699219l-3.96875-3.96875c-.183594-.183594-.433594-.289063-.695313-.289063h-1.992187v-.003906zm0 0"/><path d="m4.960938 1.179688c-1.097657 0-1.972657.886718-1.984376 1.984374v12.898438c0 1.101562.886719 1.984375 1.984376 1.984375h.992187v-1.984375c-.550781 0-.984375-.441406-.992187-.992188v-10.914062c0-.550781.441406-.992188.992187-.992188h3.96875v-.003906h1.582031l.003906.003906h2.792969l-1.691406-1.691406c-.183594-.183594-.433594-.289062-.695313-.289062h-1.992187v-.003906zm0 0"/><path d="m18.851562 15.070312c-1.097656 0-1.984374.886719-1.984374 1.984376v.992187c-.546876 0-.992188.445313-.992188.992187v1.988282c0 .546875.445312.992187.992188.992187h3.972656c.546875 0 .992187-.445312.992187-.992187v-1.988282c0-.546874-.445312-.992187-.992187-.992187v-.992187c0-1.097657-.886719-1.984376-1.988282-1.984376zm0 .992188c.550782 0 .992188.445312.992188.992188v.992187h-1.984375v-.992187c0-.546876.445313-.992188.992187-.992188zm0 0" fill-opacity=".392157"/></g></svg>

<?xml version="1.0" encoding="UTF-8"?>
<svg xmlns="http://www.w3.org/2000/svg" xmlns:xlink="http://www.w3.org/1999/xlink" width="24px" height="24px" viewBox="0 0 24 24" version="1.1">
<g id="surface1">
<path style=" stroke:none;fill-rule:nonzero;fill:rgb(25.882354%,25.882354%,25.882354%);fill-opacity:1;" d="M 8.929688 4.15625 C 7.832031 4.15625 6.945312 5.042969 6.945312 6.140625 L 6.945312 20.03125 C 6.945312 21.132812 7.832031 22.019531 8.929688 22.019531 L 13.890625 22.019531 L 13.890625 20.03125 L 9.921875 20.03125 C 9.375 20.03125 8.941406 19.589844 8.929688 19.039062 L 8.929688 7.132812 C 8.929688 6.582031 9.375 6.140625 9.921875 6.140625 L 13.890625 6.140625 L 13.890625 6.136719 L 15.472656 6.136719 L 18.863281 9.527344 L 18.863281 11.101562 C 18.859375 11.101562 18.859375 11.101562 18.859375 11.101562 L 18.859375 13.085938 L 20.84375 13.085938 L 20.84375 12.09375 C 20.84375 12.050781 20.839844 12.003906 20.839844 11.957031 L 20.839844 9.117188 C 20.839844 8.855469 20.734375 8.605469 20.546875 8.417969 L 16.578125 4.449219 C 16.394531 4.265625 16.144531 4.160156 15.882812 4.160156 L 13.890625 4.160156 L 13.890625 4.15625 Z M 8.929688 4.15625 "/>
<path style=" stroke:none;fill-rule:nonzero;fill:rgb(25.882354%,25.882354%,25.882354%);fill-opacity:1;" d="M 4.960938 1.179688 C 3.863281 1.179688 2.988281 2.066406 2.976562 3.164062 L 2.976562 16.0625 C 2.976562 17.164062 3.863281 18.046875 4.960938 18.046875 L 5.953125 18.046875 L 5.953125 16.0625 C 5.402344 16.0625 4.96875 15.621094 4.960938 15.070312 L 4.960938 4.15625 C 4.960938 3.605469 5.402344 3.164062 5.953125 3.164062 L 9.921875 3.164062 L 9.921875 3.160156 L 11.503906 3.160156 L 11.507812 3.164062 L 14.300781 3.164062 L 12.609375 1.472656 C 12.425781 1.289062 12.175781 1.183594 11.914062 1.183594 L 9.921875 1.183594 L 9.921875 1.179688 Z M 4.960938 1.179688 "/>
<path style=" stroke:none;fill-rule:nonzero;fill:rgb(25.882354%,25.882354%,25.882354%);fill-opacity:0.392157;" d="M 18.851562 15.070312 C 17.753906 15.070312 16.867188 15.957031 16.867188 17.054688 L 16.867188 18.046875 C 16.320312 18.046875 15.875 18.492188 15.875 19.039062 L 15.875 21.027344 C 15.875 21.574219 16.320312 22.019531 16.867188 22.019531 L 20.839844 22.019531 C 21.386719 22.019531 21.832031 21.574219 21.832031 21.027344 L 21.832031 19.039062 C 21.832031 18.492188 21.386719 18.046875 20.839844 18.046875 L 20.839844 17.054688 C 20.839844 15.957031 19.953125 15.070312 18.851562 15.070312 Z M 18.851562 16.0625 C 19.402344 16.0625 19.84375 16.507812 19.84375 17.054688 L 19.84375 18.046875 L 17.859375 18.046875 L 17.859375 17.054688 C 17.859375 16.507812 18.304688 16.0625 18.851562 16.0625 Z M 18.851562 16.0625 "/>
</g>
</svg>
